X: 197
T:Miss Gibson Craig
B:William Marshall Volume 2nd Of A Collection Of Scottish Melodies (1845)
C:William Marshall
L:1/8
M:4/4
N:Same tune as"Ef Lady Peel"
O:Scotland
R:Slow Strathspey
Z:Clark Bernst
%%Page:31 - 1
F:http://richardrobinson.tunebook.org.uk/tune/4040
%%TBL:{"version":1,"type":"tune","id":"4040"}
K:Eb
B, [| \
E3/2F/ E/D/C/B,/ CFFG | EBGe Bgeb | \
E3/2F/ E/D/C/B,/ CFFG | B,3/2E/ E/D/C/B,/ E2 EB, |
E3/2F/ E/D/C/B,/ CFFG | EBGe Bgeb | \
E3/2F/ E/D/C/B,/ CF FG | B,3/2E/ E/D/C/B,/ E2 EB [|
e3/2f/ e/d/c/B/ cffg | egce BeGE | \
e3/2f/ e/d/c/B/ cffg | e/d/c/B/ cd e2 eB |
e3/2f/ e/d/c/B/ cffg | egce BeGE |\
A,cG,B DFFG | B,3/2E/ E/D/C/B,/ E2 EB, |]

